X:1
T:Suk
T:Suk
T:Björnstjerne Björnson
T:Thorvald Lammers, Op. 16, #3
C:Thorvald Lammers, Op. 16, #3
%%score [ ( 1 2 ) ( 3 4 ) ]
L:1/8
Q:1/4=40
M:4/4
K:Bb
V:1 treble-8 nm="Tenor I.II."
V:2 treble-8 
V:3 bass nm="Bass I.II."
V:4 bass 
V:1
"^Stille og roligt"!mp! d3/2 c/ d e d2 c2 | B3/2 A/ G A B d c2 | d3/2 d/ f e d3/2 A/ c2 | %3
w: Af- ten- so- lens hyg- ge|ik- ke kan mit vin- du naa,|mor- gen- so- len li- ge- saa,|
 B3/2 A/ G d c2 B2 |!mf!!mf! f3/2 f/ g f e2 d2 |!>(! c3/2 c/ B c d f!>)! c2 | %6
w: her er al- tid skyg- ge.|Sol paa beg- ge si- der|vil du ei i kam- ret ind?|
"^cresc." f3/2 f/ e f g g f2 |"^dim." e3/2 d/ c d c2 B2 ||!mp!!mp! d3/2 c/ d e d2 c2 | %9
w: Her faldt straa- ler paa et sind,|som i mör- ke stri- der.|Mor- gen- so- lens glæ- de,|
 B3/2 A/ G A B d c2 | d3/2 d/ f e d3/2 A/ c2 | B3/2 A/ G d c2 B2 |!mf!!mf! f3/2 f/ g f e2 d2 | %13
w: o, du er min barn- doms- tid;|mens du le- ger ren og hvid,|jeg kan næ- sten græ- de.|Af- ten- so- lens hvi- le,|
"^dim." c3/2 c/ B c d f c2 |"^cresc." f3/2 f/ e f g g f2 |"^dim." e3/2 d/ c d c2!pp!!pp! B2 |] %16
w: ak, du er den vi- ses ro;|læn- ger frem, saa vil du jo|mod mit vin- du smi- le.|
V:2
 B3/2 A/ B B B2 A2 | G3/2 ^F/ G =F F B A2 | B3/2 B/ B c A3/2 A/ A2 | G3/2 A/ G B A2 F2 | %4
 c3/2 c/ e B A2 B2 | A3/2 A/ B A B B A2 | d3/2 d/ e d e c d2 | B3/2 B/ A B A2 F2 || %8
 B3/2 A/ B B B2 A2 | G3/2 ^F/ G =F F B A2 | B3/2 B/ B c A3/2 A/ A2 | G3/2 A/ G B A2 F2 | %12
 c3/2 c/ e B A2 B2 | A3/2 A/ B A B B A2 | d3/2 d/ e d e c d2 | B3/2 B/ A B A2 F2 |] %16
V:3
!mp! F,3/2 F,/ F, G, F,2 F,2 | D,3/2 D,/ E, F, D, F, F,2 | F,3/2 F,/ F, G, ^F,3/2 F,/ F,2 | %3
 G,3/2 =F,/ E, F, E,2 D,2 |!mf!!mf! A,3/2 A,/ B, B, F,2 F,2 |!>(! F,3/2 F,/ F, E, F, F,!>)! F,2 | %6
"_cresc." B,3/2 B,/ B, B, B, B, B,2 |"_dim." G,3/2 F,/ E, F, E,2 D,2 || %8
!mp!!mp! F,3/2 F,/ F, G, F,2 F,2 | D,3/2 D,/ E, F, D, F, F,2 | F,3/2 F,/ F, G, ^F,3/2 F,/ F,2 | %11
 G,3/2 =F,/ E, F, E,2 D,2 |!mf!!mf! A,3/2 A,/ B, B, F,2 F,2 |"_dim." F,3/2 F,/ F, E, F, F, F,2 | %14
"_cresc." B,3/2 B,/ B, B, B, B, B,2 |"_dim." G,3/2 F,/ E, F, E,2!pp!!pp! D,2 |] %16
V:4
 B,,3/2 F,/ B,, E, F,2 F,,2 | G,,3/2 A,,/ B,, C, D, B,, F,,2 | B,,3/2 B,,/ D, C, D,3/2 D,/ D,2 | %3
 E,3/2 C,/ B,, B,, F,,2 B,,2 | F,3/2 F,/ E, D, C,2 B,,2 | C,3/2 C,/ D, C, B,, D, F,2 | %6
 _A,3/2 A,/ G, F, E, =E, F,2 | B,,3/2 B,,/ F,, F,, F,,2 B,,2 || B,,3/2 F,/ B,, E, F,2 F,,2 | %9
 G,,3/2 A,,/ B,, C, D, B,, F,,2 | B,,3/2 B,,/ D, C, D,3/2 D,/ D,2 | E,3/2 C,/ B,, B,, F,,2 B,,2 | %12
 F,3/2 F,/ E, D, C,2 B,,2 | C,3/2 C,/ D, C, B,, D, F,2 | _A,3/2 A,/ G, F, E, =E, F,2 | %15
 B,,3/2 B,,/ F,, F,, F,,2 B,,2 |] %16

